icon-themes/sifr_svg/cmd/lc_diagramaxisz.svg

<svg viewBox="0 0 24 24" xmlns="http://www.w3.org/2000/svg"><path d="m7 1v14.585937l-1.2929688-1.292968-1.4140624 1.414062 1.2929687 1.292969-1.5859375 1.585938-1.2929688-1.292969-1.4140625 1.414062 1.2929688 1.292969-1.5859375 1.585938 1.4140625 1.414062 6-6h.5859375 14v-2h-14v-14z" fill="#555753"/></svg>

<svg xmlns="http://www.w3.org/2000/svg" viewBox="0 0 24 24">
  <path
     style="fill:#555753"
     d="M 7,1 V 15.585937 L 5.7070312,14.292969 4.2929688,15.707031 5.5859375,17 4,18.585938 2.7070312,17.292969 1.2929687,18.707031 2.5859375,20 1,21.585938 2.4140625,23 l 6,-6 H 9 23 V 15 H 9 V 1 Z"
     />
</svg>
